X:1
T: Stonefield
C:Muriel A Johnstone
R:Jig
%Q:180
K:A
M:6/8
L:1/16
|:E2|E2C2E2 A2E2A2|c2A2c2 e2d2c2|B2F2B2 d2B2d2|f2d2B2 G2F2E2|
E2C2E2 A2E2A2|c2A2c2 e2d2c2|d2c2B2 e4d2|c2A2A2 A4:|
|:e2|a2g2a2 b4e2|a2g2a2 b2g2e2|a2g2f2 e2d2c2|
|1f2d2B2 B4e2|a2g2a2 b4e2|a2g2a2 b2g2e2|d2c2B2 e4d2|c2A2A2 A4:|
|2f2d2B2 B4E2|E2C2E2 A2E2A2|c2A2c2 e2d2c2|d2c2B2 e4d2|c2A2A2 A4||
